images/Binance-logo.svg

<svg width="301" height="61" viewBox="0 0 301 61" fill="none" xmlns="http://www.w3.org/2000/svg">
<path fill-rule="evenodd" clip-rule="evenodd" d="M298.597 47.4061V40.9653H280.734V34.0554H296.248V27.6164H280.734V20.9419H298.361V14.5029H273.543V47.4061H298.597ZM267.712 42.095L263.105 37.441C260.521 39.7917 258.218 41.2956 254.456 41.2956C248.816 41.2956 244.914 36.5942 244.914 30.9545V30.8614C244.914 25.22 248.91 20.6134 254.456 20.6134C257.747 20.6134 260.333 22.0224 262.872 24.3275L267.477 19.0146C264.421 16.0068 260.709 13.9389 254.504 13.9389C244.396 13.9389 237.346 21.6007 237.346 30.9545V31.0476C237.346 40.4962 244.538 47.9701 254.221 47.9701C260.567 47.9701 264.328 45.7142 267.712 42.095ZM230.341 47.4061V14.5029H223.196V34.7617L207.779 14.5029H201.104V47.4061H208.248V26.4884L224.183 47.4061H230.341ZM182.674 33.6338H173.932L178.303 22.9623L182.674 33.6338ZM195.837 47.4061L181.734 14.2674H175.06L160.959 47.4061H168.338L171.346 40.0254H185.261L188.268 47.4061H195.837ZM155.738 47.4061V14.5029H148.594V34.7617L133.175 14.5029H126.501V47.4061H133.646V26.4884L149.581 47.4061H155.738ZM109.589 47.4061H116.827V14.5029H109.589V47.4061ZM94.455 37.4867C94.455 39.9323 92.5277 41.0602 89.3319 41.0602H80.7301V33.8218H89.0964C92.8105 33.8218 94.455 35.1834 94.455 37.3935V37.4867ZM92.6225 24.3275C92.6225 26.7695 90.6003 27.8044 87.4045 27.8044H80.7301V20.8488H87.8736C90.9289 20.8488 92.6225 22.0698 92.6225 24.2326V24.3275ZM101.646 38.3809V38.2878C101.646 33.8674 99.297 31.659 95.4898 30.2025C97.8388 28.8849 99.8135 26.8187 99.8135 23.1046V23.0098C99.8135 17.8392 95.676 14.5029 88.9559 14.5029H73.6778V47.4061H89.3319C96.7583 47.4061 101.646 44.3983 101.646 38.3809ZM30.1295 37.7291L36.9041 30.9545L30.1295 24.1799L23.3549 30.9545L30.1295 37.7291ZM30.1295 47.4061L18.5164 35.793L11.7435 42.5676L23.3549 54.1808L30.1295 60.9536L36.9041 54.1808L48.5172 42.5676L41.7426 35.793L30.1295 47.4061ZM53.3558 24.1799L46.5811 30.9545L53.3558 37.7291L60.1304 30.9545L53.3558 24.1799ZM30.1295 14.5029L41.7426 26.116L48.5172 19.3414L36.9041 7.72823L30.1295 0.953613L23.3549 7.72823L11.7435 19.3414L18.5164 26.116L30.1295 14.5029ZM13.6779 30.9545L6.90323 37.7291L0.130371 30.9545L6.90323 24.1799L13.6779 30.9545Z" fill="white"/>
</svg>

<svg xmlns="http://www.w3.org/2000/svg" width="301" height="61" fill="none"><path fill="#fff" fill-rule="evenodd" d="M298.597 47.406v-6.44h-17.863v-6.91h15.514v-6.44h-15.514v-6.674h17.627v-6.44h-24.818v32.904h25.054Zm-30.885-5.311-4.607-4.654c-2.584 2.35-4.887 3.855-8.649 3.855-5.64 0-9.542-4.702-9.542-10.341v-.094c0-5.641 3.996-10.248 9.542-10.248 3.291 0 5.877 1.41 8.416 3.715l4.605-5.313c-3.056-3.008-6.768-5.076-12.973-5.076-10.108 0-17.158 7.662-17.158 17.015v.094c0 9.448 7.192 16.922 16.875 16.922 6.346 0 10.107-2.256 13.491-5.875Zm-37.371 5.311V14.503h-7.145v20.259l-15.417-20.26h-6.675v32.904h7.144V26.488l15.935 20.918h6.158Zm-47.667-13.772h-8.742l4.371-10.672 4.371 10.672Zm13.163 13.772-14.103-33.139h-6.674l-14.101 33.14h7.379l3.008-7.382h13.915l3.007 7.381h7.569Zm-40.099 0V14.503h-7.144v20.259l-15.419-20.26h-6.674v32.904h7.145V26.488l15.935 20.918h6.157Zm-46.149 0h7.238V14.503h-7.238v32.903Zm-15.134-9.92c0 2.446-1.927 3.574-5.123 3.574H80.73v-7.238h8.366c3.715 0 5.359 1.361 5.359 3.572v.093Zm-1.832-13.158c0 2.442-2.023 3.476-5.219 3.476H80.73V20.85h7.144c3.055 0 4.749 1.22 4.749 3.384v.095Zm9.023 14.053v-.093c0-4.42-2.349-6.629-6.156-8.085 2.349-1.318 4.324-3.384 4.324-7.098v-.095c0-5.17-4.138-8.507-10.858-8.507H73.678v32.903h15.654c7.426 0 12.314-3.008 12.314-9.025Zm-71.517-.652 6.775-6.774-6.775-6.775-6.774 6.774 6.774 6.775Zm0 9.677L18.517 35.793l-6.772 6.775 11.61 11.613 6.776 6.773 6.774-6.773 11.613-11.613-6.774-6.775-11.614 11.613ZM53.356 24.18l-6.775 6.774 6.775 6.775 6.774-6.774-6.774-6.775Zm-23.227-9.677 11.614 11.613 6.774-6.775L36.904 7.728 30.13.954l-6.774 6.774-11.612 11.613 6.773 6.775L30.13 14.503ZM13.678 30.954 6.903 37.73.13 30.955l6.773-6.775 6.775 6.774Z" clip-rule="evenodd"/></svg>
